X:4
T:Ode to Joy (Extended)
C:Beethoven
M:4/4
L:1/4
Q:1/4=100
K:C
E E F G | G F E D | C C D E | E3/2 D/ D2 |
E E F G | G F E D | C C D E | D3/2 C/ C2 |
D D E C | D E/F/ E C | D E/F/ E D | C D G2 |
E E F G | G F E D | C C D E | D3/2 C/ C2 |
E E E D | C C D E | E F G A | G F E D |
C C D E | E F G F | E D C D | E2 D2 |
E E F G | G F E D | C C D E | D3/2 C/ C2 |]